X: 49
T:D'r Hans im Schnokeloch
M:2/4
L:1/8
O:France
A:Alsace
K:G
D|G2d2|B>A GG|AA DD|G2 zG|
AB cA|Bc dB|AB cA|Bc dD|
G2d2|B>A GG|AA DD|G2 z||
W:D'r Hans im Schnokeloch
W:Hett alles was er will!
W:Un was er hett des well er nitt
W:Un was er will des hett er nitt
W:D'r Hans im Schnokeloch
W:Hett alles was er will!
W:
W: From "Falaleiro" http://home.t-online.de/home/pheld/homepage.htm

